Adwaita++/emblems/16/emblem-nowrite.svg

<svg fill="none" height="16" viewBox="0 0 16 16" width="16" xmlns="http://www.w3.org/2000/svg">
  <path d="m13.6 1h-11.2c-.7732 0-1.4.6268-1.4 1.4v11.2c0 .7732.6268 1.4 1.4 1.4h11.2c.7732 0 1.4-.6268 1.4-1.4v-11.2c0-.7732-.6268-1.4-1.4-1.4z" fill="#9a9996"/>
  <path d="m7.72218 3.0015c-1.90428.05506-3.16664.90009-3.16664 2.64303v1.77896h-.42858c-.31444 0-.57142.19988-.57142.45019v4.67612c0 .2503.25698.4502.57142.4502h7.75394c.3145 0 .5635-.1999.5635-.4502v-4.67612c0-.25031-.249-.45019-.5635-.45019h-.4365l.008-1.74992c0-1.85017-1.3704-2.64924-3.44447-2.67207-.0967-.0013-.19209-.0026-.28575 0zm.19051 1.16903c.03509-.00092.0749 0 .11111 0 2.3012 0 2.1247 1.51042 2.1587 1.96049v1.29247h-4.3333v-1.28521c-.00842-.4465-.14255-1.92182 2.06349-1.96775z" fill="#f6f5f4"/>
</svg>

<svg xmlns="http://www.w3.org/2000/svg" fill="none" width="16" height="16" viewBox="0 0 16 16">
 <path fill="url(#paint0_linear)" d="M13.6 1H2.4C1.6268 1 1 1.6268 1 2.4V13.6C1 14.3732 1.6268 15 2.4 15H13.6C14.3732 15 15 14.3732 15 13.6V2.4C15 1.6268 14.3732 1 13.6 1Z"/>
 <path fill="url(#paint1_linear)" d="M7.72218 3.0015C5.8179 3.05656 4.55554 3.90159 4.55554 5.64453V7.42349H4.12696C3.81252 7.42349 3.55554 7.62337 3.55554 7.87368V12.5498C3.55554 12.8001 3.81252 13 4.12696 13H11.8809C12.1954 13 12.4444 12.8001 12.4444 12.5498V7.87368C12.4444 7.62337 12.1954 7.42349 11.8809 7.42349H11.4444L11.4524 5.67357C11.4524 3.8234 10.082 3.02433 8.00793 3.0015C7.91123 3.0002 7.81584 2.9989 7.72218 3.0015H7.72218ZM7.91269 4.17053C7.94778 4.16961 7.98759 4.17053 8.0238 4.17053C10.325 4.17053 10.1485 5.68095 10.1825 6.13102V7.42349H5.8492V6.13828C5.84078 5.69178 5.70665 4.21646 7.91269 4.17053V4.17053Z"/>
 <defs>
  <linearGradient id="paint0_linear" x1="1" x2="15" y1="8" y2="8" gradientUnits="userSpaceOnUse">
   <stop stop-color="#9A9996"/>
  </linearGradient>
  <linearGradient id="paint1_linear" x1="3.556" x2="12.444" y1="8" y2="8" gradientUnits="userSpaceOnUse">
   <stop stop-color="#F6F5F4"/>
  </linearGradient>
 </defs>
</svg>
